X:1
T:The Weaver's
R:slide
M:12/8
L:1/8
K:D
~g2g|:fed B2d A2d F2G|A2F DEF E3 E2g|
|fed B2d A2d F2G|1 A2F EFE D3 ~g2g:|2 A2F EFE D3 D2e|]
|fef ~a2f fef ~a2f|fef ~a2f ~g2-g f2e|
|fef ~a2f fef ~a2f|fef ~a2f d3 d2e|
|fef ~a2f fef ~a2f|fef ~a2f ~g2-g f2e|
|fgf efe ded BdB|ABA GFE D3 ~g2g|